X:1
T:When I See My Savior
T:When I See My Savior
T:Robert Harkness
T:Maud Fraser, 1911
T:Public Domain Courtesy of the Cyber Hymnal™
C:Robert Harkness
Z:Public Domain
Z:Courtesy of the Cyber Hymnal™
%%score ( 1 2 ) ( 3 4 )
L:1/8
Q:1/4=170
M:6/4
K:C
V:1 treble 
V:2 treble 
V:3 bass 
V:4 bass 
V:1
 [CE]4 [CE]2 [DE]4 [DE]2 | [CE]6 [CA]6 | [DA]2 [EG]2 [DF]2 [EG]4 [DF]2 | [CE]12 | %4
w: 1.~When I see my|Sav- ior,|hang- ing on Cal- va-|ry,|
w: 2.~I can see the|blood drops,|red ’neath His thorn- y|crown,|
w: 3.~“Why hast Thou for-|sak- en?”|List to that sad, sad|moan!|
 [B,E]4 [B,E]2 [^D^F]4 [DF]2 | [EG]6 [EB]6 | [CB]2 [CA]2 [CE]2 [EG]4 [^D^F]2 | E12 | %8
w: Bear- ing there for|sin- ners|bit- ter- est ag- o-|ny.|
w: From the cru- el|nail wounds|now they are fall- ing|down;|
w: Oh, His heart was|bro- ken,|suf- fer- ing there a-|lone;|
 [FG]4 [FG]2 [FA]4 [FB]2 | [Fe]6 [Fd]6 | [Ec]4 E2 [GB]4 [FA]2 | [EG]12 | [^CG]4 [CG]2 [EA]4 [CE]2 | %13
w: Grat- i- tude o’er-|whelms me,|makes mine eyes grow|dim,|All my ran- somed|
w: Lord, when I would|wan- der|from Thy love a-|way,|Let me see those|
w: Bro- ken then that|mor- tals|ne’er need cry in|vain|For God’s love and|
 [EG]6 F6 C2 | [B,F]4 [B,F]2 (F2 E2) [B,D]2 | C12 |] %16
w: be- ing cap-|* tive is * to|Him.|
w: blood drops shed|* for me * that|day.|
w: com- fort, in|* the hour * of|pain.|
V:2
 x12 | x12 | x12 | x12 | x12 | x12 | x12 | E12 | x12 | x12 | x4 E2 x6 | x12 | x12 | x6 D4 x4 | %14
 x6 B,4 x2 | C12 |] %16
V:3
 [C,G,]4 [C,G,]2 [B,,^G,]4 [B,,G,]2 | [A,,A,]6 [A,,E,]6 | %2
 [D,F,]2 [D,G,]2 [D,A,]2 [G,,B,]4 [G,,G,]2 | [C,G,]12 | [B,,G,]4 [B,,G,]2 [B,,B,]4 [B,,B,]2 | %5
 [E,B,]6 [E,G,]6 | [A,,E,]2 [A,,E,]2 [C,A,]2 [B,,B,]4 [B,,A,]2 | [E,G,]12 | %8
 [D,B,]4 [G,B,]2 [G,C]4 [G,D]2 | [G,B,]6 [^G,B,]6 | [A,C]4 [G,B,]2 [F,C]4 [F,C]2 | [C,C]12 | %12
 [A,,E,]4 [A,,A,]2 [^C,A,]4 [A,,A,]2 | [D,_B,]6 [D,A,]6 x2 | [G,,A,]4 [G,,A,]2 (A,2 G,2) [G,,F,]2 | %15
 [C,E,]12 |] %16
V:4
 x12 | x12 | x12 | x12 | x12 | x12 | x12 | x12 | x12 | x12 | x12 | x12 | x12 | x14 | x6 G,,4 x2 | %15
 x12 |] %16

